!!!COM: Palestrina, Giovanni Perluigi da
!!!OPR: Missa Benedicta es
!!!OMD: Agnus II
!!!OTL: A.coda
**kern	**kern	**kern	**kern	**kern	**kern
*Ibass	*Ibass	*Itenor	*Icalto	*Icalto	*Icant
!Bassus 2	!Bassus 1	!Tenor	!Altus 2	!Altus 1	!Cantus
*clefF4	*clefF4	*clefGv2	*clefG2	*clefG2	*clefG2
*k[]	*k[]	*k[]	*k[]	*k[]	*k[]
*G:mix	*G:mix	*G:mix	*G:mix	*G:mix	*G:mix
*M4/2	*M4/2	*M4/2	*M4/2	*M4/2	*M4/2
=39	=39	=39	=39	=39	=39
1G	0GG	1B	1d	1G	2.g
.	.	.	.	.	4a
1G	.	2r	[1g	1d	4b
.	.	.	.	.	4cc
.	.	4G	.	.	[2dd
.	.	4A	.	.	.
=40	=40	=40	=40	=40	=40
0r	0r	4B	2g]	0d	4dd]
.	.	4c	.	.	4cc
.	.	2d	2f#	.	2a
.	.	2G	2g	.	2b
.	.	2d	2f#	.	2a
=41	=41	=41	=41	=41	=41
1.G	2.GG	2G	1g	1d	2.b
.	.	1B	.	.	.
.	4AA	.	.	.	4cc
.	4BB	.	[1d	2.d	[1dd
.	4C	.	.	.	.
2F#	2D	2A	.	.	.
.	.	.	.	4c	.
=42	=42	=42	=42	=42	=42
2G	2GG	2G	0d]	2B	1dd]
2F#	2D	2A	.	2A	.
1G	1GG	1B	.	1G	2r
.	.	.	.	.	[2d
=43	=43	=43	=43	=43	=43
2F	1.D	0A	1.f	2A	4d]
.	.	.	.	.	4e
4D	.	.	.	1d	4f
4E	.	.	.	.	4g
4F	.	.	.	.	1a
4G	.	.	.	.	.
2A	2AA	.	2e	2c#	.
=44	=44	=44	=44	=44	=44
2D	2r	1A	2f	2d	1a
2A	2AA	.	2e	2c#	.
2.D	2D	2A	[1f	4d	1a
.	.	.	.	4e	.
.	[2D	[2d	.	4f	.
4E	.	.	.	4g	.
=45	=45	=45	=45	=45	=45
2F	2D]	4d]	2f]	2a	2d
.	.	4c	.	.	.
2G	2GG	2B	2d	1g	2.dd
1D	1D	1A	2r	.	.
.	.	.	.	.	4cc
.	.	.	2d	2f#	2a
=46	=46	=46	=46	=46	=46
1r	0GG	2G	2B	[0g	2.b
.	.	1d	4G	.	.
.	.	.	4A	.	4cc
1G	.	.	4B	.	1dd
.	.	.	4c	.	.
.	.	2B	4d	.	.
.	.	.	4B	.	.
=47	=47	=47	=47	=47	=47
2E	2.C	1.e	4c	1g_	2g
.	.	.	4d	.	.
2C	.	.	4e	.	1cc
.	4D	.	4f	.	.
[1G	4E	.	2.g	1g_	.
.	4F	.	.	.	.
.	2G	2d	.	.	2b
.	.	.	4f	.	.
=48	=48	=48	=48	=48	=48
2G]	2C	2c	2e	0g]	2cc
2GG	2G	2d	2d	.	2b
[1C	2E	2.e	2.c	.	[1cc
.	[2E	.	.	.	.
.	.	4d	4d	.	.
=49	=49	=49	=49	=49	=49
0C]	2E]	0c	0e	[0g	2cc]
.	4D	.	.	.	4b
.	4C	.	.	.	4a
.	2.E	.	.	.	2g
.	.	.	.	.	2a
.	4F#	.	.	.	.
=50	=50	=50	=50	=50	=50
0GG	0G	0B	0d	0g]	0b
==	==	==	==	==	==
*-	*-	*-	*-	*-	*-
!!!CDT: 1525/^1526/-1594/2/2
!!!OCY: Italia
!!!AGN: Mass (Parody)
!!!AST: renaissance, vocal
!!!ASW: Motet 1520 (Josquin)
!!!PWK: Masses, Book 11
!!!RNB: Cadence finals: D
!!!YOR: Le Opere Complete, v. 28, p. 222
!!!YOO: Rome, Italy: Fratelli Scalera
!!!END: 1992//
!!!EED: John Miller
!!!YEC: Copyright 2000, John Miller
!!!YEN: United States of America
!!!YEM: Rights to all derivative electronic formats reserved.
!!!YEM: Refer to licensing agreement for further details.
!!!YEM: This file must be accompanied by the licensing agreement.
!!!YEM: A copy of the licensing agreement may be found at http://www.music-cog.ohio-state.edu/HumdrumDatabases/Palestrina/license.txt
!!!EMD: converted to Humdrum by Bret Aarden
